meta/heart-bits/logo.svg

<svg width="100%" height="100%" viewBox="0 0 500 500" version="1.1" xmlns="http://www.w3.org/2000/svg" xmlns:xlink="http://www.w3.org/1999/xlink" xml:space="preserve" xmlns:serif="http://www.serif.com/" style="fill-rule:evenodd;clip-rule:evenodd;stroke-linejoin:round;stroke-miterlimit:2;"><g><rect x="0" y="0" width="500" height="500" style="fill:#2c333d;"/><path d="M353,295.938l97.438,-97.438l-97.438,-97.437l-97.437,97.437l97.437,97.438Z" style="fill:#e05a60;fill-opacity:0.9;"/><path d="M250,398.938l97.431,-97.438l-97.431,-97.437l-97.438,97.437l97.438,97.438Z" style="fill:#e05a60;"/><path d="M147,295.938l97.438,-97.431l-97.438,-97.438l-97.438,97.438l97.438,97.431Z" style="fill:#e05a60;fill-opacity:0.8;"/></g></svg>

<svg xmlns="http://www.w3.org/2000/svg" xml:space="preserve" style="fill-rule:evenodd;clip-rule:evenodd;stroke-linejoin:round;stroke-miterlimit:2" viewBox="0 0 500 500"><path d="M0 0h500v500H0z" style="fill:#2c333d"/><path d="m353 295.938 97.438-97.438L353 101.063 255.563 198.5 353 295.938Z" style="fill:#e05a60;fill-opacity:.9"/><path d="m250 398.938 97.431-97.438L250 204.063 152.562 301.5 250 398.938Z" style="fill:#e05a60"/><path d="m147 295.938 97.438-97.431L147 101.069l-97.438 97.438L147 295.938Z" style="fill:#e05a60;fill-opacity:.8"/></svg>
